X:1
T:Title
%%score { ( 1 3 5 ) | ( 2 4 ) }
L:1/8
M:3/4
K:F
V:1 treble nm="Grand Piano"
V:3 treble 
V:5 treble 
V:2 bass 
V:4 bass 
V:1
 z2 z[Q:1/4=85] [F,A,C] A>G | z2 F,A [DB]>[DF] | [CA]4 [A,F]2 | [CE]>[B,D] [=B,G]2 A2 | %4
 G4[K:bass][K:treble] z2 | [A,F]4 [Fd]2 | A2 z2 z2 | A3 F G<C | %8
[M:15/16] [F,A,F]3/2- [F,A,F]3 [CFA][CFA]/-[CFA][^CGA]/ |[M:3/4] [DFd]3 [DFA] [A,DF]>[DG] | %10
 [^CEA]4 [=CFA]2 | [CEG]>[CEG] [CFA]2 [F=B]2 |[M:13/16] [Ec]/-[Ec]/-[Ec]/-[Ec]-<[Ec][F,A,C]A>G | %13
[M:3/4] z2 F,G [CA]>[_Ec] | c2 B2 G2 | A F3 G>C | [A,F]6 |] %17
V:2
 z2 z F,, C>B, | F,,C, F,,C [B,,F,]2 | [F,,F,]4 [F,,F,]2 | [B,,F,]2 z2 =B,2 | C2 z F,, C>B, | %5
 F,,C, F,,C .A,>[K:treble]^F | z2 G2 D2 | B,3 A, [C,E,B,]<[C,G,B,] | %8
[M:15/16] F,,3/2- F,,3 F,F,/-F,E,/ |[M:3/4] D,3 D, D,>B,, | A,,4 F,2 | C,>C, F,2 G,2 | %12
[M:13/16] G,-<G,B,3/2F,,C>B, |[M:3/4] F,,C, F,,B, [F,,F,]>[F,,F,] | [B,,F,]4 ^C2 | %15
 [C,F,C] [C,F,A,]3 [C,E,B,]>[C,G,B,] | [F,,F,]6 |] %17
V:3
 x6 | [A,F]4 z2 | x6 | x6 | z2[K:bass] B,[F,A,C][K:treble] A>G | z2 F,A z z/ A/ | [Dc]4 B2 | x6 | %8
[M:15/16] x15/2 |[M:3/4] x6 | x6 | x6 |[M:13/16] x13/2 |[M:3/4] [A,F]4 z2 | D4 z2 | x6 | x6 |] %17
V:4
 x6 | x6 | x6 | z2 [G,,F,]4 | [C,E,]4 z2 | z2 z2 D,2[K:treble] | G,4 z2 | [C,F,]2 z2 z2 | %8
[M:15/16] x15/2 |[M:3/4] x6 | x6 | x6 |[M:13/16] C,/-C,/-C,/-C,-<C, z/ z/ z/ z/ z |[M:3/4] x6 | %14
 x6 | x6 | x6 |] %17
V:5
 x6 | x6 | x6 | x6 | x2[K:bass] x2[K:treble] x2 | z2 z2 z D | x6 | x6 |[M:15/16] x15/2 | %9
[M:3/4] x6 | x6 | x6 |[M:13/16] x13/2 |[M:3/4] x6 | x6 | x6 | x6 |] %17

